projects/flag-game/flags/Barbados.svg

<svg viewBox="0 0 1000 667" xmlns="http://www.w3.org/2000/svg" xmlns:xlink="http://www.w3.org/1999/xlink"><clipPath id="a"><path d="m0 0h1000v666.71875h-1000zm0 0"/></clipPath><clipPath id="b"><path d="m333 0h334v666.71875h-334zm0 0"/></clipPath><g clip-path="url(#a)"><path d="m0 666.667969v-666.667969h1000v666.667969zm0 0" fill="#00267f" fill-rule="evenodd"/></g><g clip-path="url(#b)"><path d="m333.332031 0h333.335938v666.667969h-333.335938zm0 0" fill="#ffc726" fill-rule="evenodd"/></g><g fill-rule="evenodd"><path d="m500 171.832031c-10.832031 29.542969-21.875 60.292969-45.5 83.835938 7.332031-2.417969 20.167969-4.582031 28.417969-4.375v124.246093l-35.085938 5.210938c-1.25-.125-1.667969-2.085938-1.667969-4.75-3.371093-38.585938-12.5-71-22.996093-104.542969-.753907-4.582031-14.042969-22.082031-3.792969-19 1.25.167969 14.957031 5.753907 12.792969 3.082031-18.667969-19.332031-45.960938-33.246093-72.460938-37.371093-2.332031-.582031-3.707031.582031-1.625 3.289062 35.167969 54.125 64.582031 118.003907 64.332031 193.792969 13.671876 0 46.796876-8.082031 60.503907-8.082031v87.667969h17.289062l3.960938-244.835938zm0 0"/><path d="m500 171.832031c10.832031 29.542969 21.875 60.292969 45.5 83.835938-7.332031-2.417969-20.167969-4.582031-28.417969-4.375v124.246093l35.085938 5.210938c1.25-.125 1.667969-2.085938 1.667969-4.75 3.371093-38.585938 12.5-71 22.996093-104.542969.753907-4.582031 14.042969-22.082031 3.792969-19-1.25.167969-14.957031 5.753907-12.792969 3.082031 18.667969-19.332031 45.960938-33.246093 72.460938-37.371093 2.332031-.582031 3.707031.582031 1.625 3.289062-35.167969 54.125-64.582031 118.003907-64.332031 193.792969-13.671876 0-46.796876-8.082031-60.503907-8.082031v87.667969h-17.289062l-3.960938-244.835938zm0 0"/></g></svg>

<?xml version="1.0" encoding="UTF-8"?>
<svg xmlns="http://www.w3.org/2000/svg" xmlns:xlink="http://www.w3.org/1999/xlink" viewBox="0 0 1000 667" version="1.1">
<defs>
<clipPath id="clip1">
  <path d="M 0 0 L 1000 0 L 1000 666.71875 L 0 666.71875 Z M 0 0 "/>
</clipPath>
<clipPath id="clip2">
  <path d="M 333 0 L 667 0 L 667 666.71875 L 333 666.71875 Z M 333 0 "/>
</clipPath>
</defs>
<g id="surface159">
<g clip-path="url(#clip1)" clip-rule="nonzero">
<path style=" stroke:none;fill-rule:evenodd;fill:rgb(0%,14.901733%,49.803162%);fill-opacity:1;" d="M 0 666.667969 L 0 0 L 1000 0 L 1000 666.667969 Z M 0 666.667969 "/>
</g>
<g clip-path="url(#clip2)" clip-rule="nonzero">
<path style=" stroke:none;fill-rule:evenodd;fill:rgb(99.998474%,78.038025%,14.901733%);fill-opacity:1;" d="M 333.332031 0 L 666.667969 0 L 666.667969 666.667969 L 333.332031 666.667969 Z M 333.332031 0 "/>
</g>
<path style=" stroke:none;fill-rule:evenodd;fill:rgb(0%,0%,0%);fill-opacity:1;" d="M 500 171.832031 C 489.167969 201.375 478.125 232.125 454.5 255.667969 C 461.832031 253.25 474.667969 251.085938 482.917969 251.292969 L 482.917969 375.539062 L 447.832031 380.75 C 446.582031 380.625 446.164062 378.664062 446.164062 376 C 442.792969 337.414062 433.664062 305 423.167969 271.457031 C 422.414062 266.875 409.125 249.375 419.375 252.457031 C 420.625 252.625 434.332031 258.210938 432.167969 255.539062 C 413.5 236.207031 386.207031 222.292969 359.707031 218.167969 C 357.375 217.585938 356 218.75 358.082031 221.457031 C 393.25 275.582031 422.664062 339.460938 422.414062 415.25 C 436.085938 415.25 469.210938 407.167969 482.917969 407.167969 L 482.917969 494.835938 L 500.207031 494.835938 L 504.167969 250 Z M 500 171.832031 "/>
<path style=" stroke:none;fill-rule:evenodd;fill:rgb(0%,0%,0%);fill-opacity:1;" d="M 500 171.832031 C 510.832031 201.375 521.875 232.125 545.5 255.667969 C 538.167969 253.25 525.332031 251.085938 517.082031 251.292969 L 517.082031 375.539062 L 552.167969 380.75 C 553.417969 380.625 553.835938 378.664062 553.835938 376 C 557.207031 337.414062 566.335938 305 576.832031 271.457031 C 577.585938 266.875 590.875 249.375 580.625 252.457031 C 579.375 252.625 565.667969 258.210938 567.832031 255.539062 C 586.5 236.207031 613.792969 222.292969 640.292969 218.167969 C 642.625 217.585938 644 218.75 641.917969 221.457031 C 606.75 275.582031 577.335938 339.460938 577.585938 415.25 C 563.914062 415.25 530.789062 407.167969 517.082031 407.167969 L 517.082031 494.835938 L 499.792969 494.835938 L 495.832031 250 Z M 500 171.832031 "/>
</g>
</svg>
